packages/foundations/assets/icons/functional/images/devices/camera_32.svg

<svg width="32" height="32" viewBox="0 0 32 32" fill="none" xmlns="http://www.w3.org/2000/svg">
<g clip-path="url(#clip0_185_759)">
<path fill-rule="evenodd" clip-rule="evenodd" d="M19.1716 6.00121C19.9672 6.00121 20.7303 6.31728 21.2929 6.87989L23.415 9.00121L27.003 9.00524C28.5996 9.00685 30 10.4234 30 12.0052V22.9988C30 24.6557 28.6569 25.9988 27 25.9988H5C3.34315 25.9988 2 24.6557 2 22.9988V12.0052C2 10.3496 3.3413 9.00691 4.99697 9.00524L8.584 9.00121L10.7071 6.87989C11.2228 6.36416 12.1213 6.00121 12.83 6.00121H19.1716ZM19.1716 8.00121H12.8284C12.5632 8.00121 12.3089 8.10656 12.1213 8.2941L9.70711 10.7083C9.51982 10.8956 9.26588 11.0009 9.00101 11.0012L4.99899 11.0052C4.4471 11.0058 4 11.4534 4 12.0052V22.9988C4 23.5511 4.44772 23.9988 5 23.9988H27C27.5523 23.9988 28 23.5511 28 22.9988V12.0052C28 11.4534 27.5529 11.0058 27.001 11.0052L22.999 11.0012C22.7341 11.0009 22.4802 10.8956 22.2929 10.7083L19.8787 8.2941C19.6911 8.10656 19.4368 8.00121 19.1716 8.00121ZM16 12.0012C18.7614 12.0012 21 14.2398 21 17.0012C21 19.7626 18.7614 22.0012 16 22.0012C13.2386 22.0012 11 19.7626 11 17.0012C11 14.2398 13.2386 12.0012 16 12.0012ZM16 14.0012C14.3431 14.0012 13 15.3444 13 17.0012C13 18.6581 14.3431 20.0012 16 20.0012C17.6569 20.0012 19 18.6581 19 17.0012C19 15.3444 17.6569 14.0012 16 14.0012ZM8 13.0012C8.55228 13.0012 9 13.4489 9 14.0012C9 14.5535 8.55228 15.0012 8 15.0012H7C6.44772 15.0012 6 14.5535 6 14.0012C6 13.4489 6.44772 13.0012 7 13.0012H8Z" fill="#1A1C1F"/>
</g>
<defs>
<clipPath id="clip0_185_759">
<rect width="32" height="32" fill="white"/>
</clipPath>
</defs>
</svg>

<svg xmlns="http://www.w3.org/2000/svg" width="32" height="32" fill="none"><g clip-path="url(#a)"><path fill="#1A1C1F" fill-rule="evenodd" d="M19.172 6.001a3 3 0 0 1 2.12.879L23.416 9l3.588.004c1.597.002 2.997 1.418 2.997 3V23a3 3 0 0 1-3 3H5a3 3 0 0 1-3-3V12.005a3 3 0 0 1 2.997-3l3.587-.004 2.123-2.121C11.223 6.364 12.121 6 12.83 6zm0 2h-6.344a1 1 0 0 0-.707.293l-2.414 2.414a1 1 0 0 1-.706.293l-4.002.004a1 1 0 0 0-.999 1V23a1 1 0 0 0 1 1h22a1 1 0 0 0 1-1V12.005a1 1 0 0 0-.999-1l-4.002-.004a1 1 0 0 1-.706-.293l-2.414-2.414a1 1 0 0 0-.707-.293m-3.172 4a5 5 0 1 1 0 10 5 5 0 0 1 0-10m0 2a3 3 0 1 0 0 6 3 3 0 0 0 0-6m-8-1a1 1 0 1 1 0 2H7a1 1 0 1 1 0-2z" clip-rule="evenodd"/></g><defs><clipPath id="a"><path fill="#fff" d="M0 0h32v32H0z"/></clipPath></defs></svg>
